X:716
T:
S:Efter skomakaren Pucksson, Klintehamn m. fl.
O:Gotland, Klintehamn
R:långdans
M:2/4
L:1/8
K:F
(fa)(ga)|(fg)(fe)|(dc)(de)|fc AF|(fa)(ga)|(fg)(fe)|(dc)(de)|f2 F2:|
afca|bgcb|afca|(g/f/e/d/) (dc)|afca|bgcb|(af)(ge)|f2 z2:|

